packages/kaspersky-hexa-ui-icons/src/iconsSVGs/48/AccountCheck.svg

<svg xmlns="http://www.w3.org/2000/svg" width="48" height="48" fill="none" viewBox="0 0 48 48"><path fill="currentColor" fill-rule="evenodd" d="M35.0048 35.15h2v5h-2zm0 9h2v-2h-2zm12.7 3.4a1.22 1.22 0 0 1-1 .6h-21.35a1.2 1.2 0 0 1-1-.6 1.22 1.22 0 0 1 0-1.2l10.58-18.4a1.24 1.24 0 0 1 2.07 0l10.7 18.4a1.22 1.22 0 0 1 0 1.2m-2.43-1.4-9.27-16-9.26 16zm-43.27-2.4v2.4h20v2h-22v-4.4c-.1443-4.9267 3.0061-9.348 7.71-10.82l4.4-1.22a9.92 9.92 0 0 0 5.55-5.14c-3.94-3.66-5.67-10.42-5.67-14.57 0-6.6274 5.3725-12 12-12 6.6274 0 12 5.3726 12 12 0 4.16-1.71 10.84-5.62 14.51a12.1 12.1 0 0 0 1.56 2.39l-1.54 1.25a13.55 13.55 0 0 1-1.6-2.4c-2.9112 1.8116-6.5989 1.8116-9.51 0a11.79 11.79 0 0 1-6.64 5.83l-4.4 1.27c-3.839 1.2338-6.3886 4.8704-6.24 8.9m22-16.6c7 0 10-10 10-15.15 0-5.5228-4.4772-10-10-10s-10 4.4772-10 10c-.01 5.15 3.01 15.15 10 15.15" clip-rule="evenodd"/></svg>

<svg width="48" height="48" viewBox="0 0 48 48" fill="none" xmlns="http://www.w3.org/2000/svg">
<path fill-rule="evenodd" clip-rule="evenodd" d="M35.0048 35.15H37.0048V40.15H35.0048V35.15ZM35.0048 44.15H37.0048V42.15H35.0048V44.15ZM47.7048 47.55C47.4948 47.9067 47.1183 48.1326 46.7048 48.15H25.3548C24.9401 48.1363 24.562 47.9094 24.3548 47.55C24.1444 47.1776 24.1444 46.7224 24.3548 46.35L34.9348 27.95C35.1642 27.6022 35.5531 27.3929 35.9698 27.3929C36.3864 27.3929 36.7753 27.6022 37.0048 27.95L47.7048 46.35C47.9151 46.7224 47.9151 47.1776 47.7048 47.55ZM45.2748 46.15L36.0048 30.15L26.7448 46.15H45.2748ZM2.00476 43.75V46.15H22.0048V48.15H0.0047585V43.75C-0.139544 38.8233 3.01093 34.402 7.71476 32.93L12.1148 31.71C14.571 30.797 16.5663 28.9491 17.6648 26.57C13.7248 22.91 11.9948 16.15 11.9948 12C11.9948 5.37258 17.3673 0 23.9948 0C30.6222 0 35.9948 5.37258 35.9948 12C35.9948 16.16 34.2848 22.84 30.3748 26.51C30.7987 27.3654 31.3224 28.1676 31.9348 28.9L30.3948 30.15C29.7776 29.4092 29.2412 28.6046 28.7948 27.75C25.8836 29.5616 22.1959 29.5616 19.2848 27.75C17.9109 30.4806 15.5302 32.5709 12.6448 33.58L8.24476 34.85C4.40587 36.0838 1.85616 39.7204 2.00476 43.75ZM24.0048 27.15C31.0048 27.15 34.0048 17.15 34.0048 12C34.0048 6.47715 29.5276 2 24.0048 2C18.4819 2 14.0048 6.47715 14.0048 12C13.9948 17.15 17.0148 27.15 24.0048 27.15Z"  fill="currentColor"/>
</svg>
